modules/hawcons-stroke/icons/icon-53-notebook-list.svg

<?xml version="1.0" encoding="UTF-8" standalone="no"?>
<svg width="32px" height="32px" viewBox="0 0 32 32" version="1.1" xmlns="http://www.w3.org/2000/svg" xmlns:xlink="http://www.w3.org/1999/xlink" xmlns:sketch="http://www.bohemiancoding.com/sketch/ns">
    <!-- Generator: Sketch 3.0.3 (7891) - http://www.bohemiancoding.com/sketch -->
    <title>icon 53 notebook list</title>
    <desc>Created with Sketch.</desc>
    <defs></defs>
    <g id="Page-1" stroke="none" stroke-width="1" fill="none" fill-rule="evenodd" sketch:type="MSPage">
        <g id="icon-53-notebook-list" sketch:type="MSArtboardGroup" fill="#929292">
            <path d="M21,4 L18,4 L18,3 L17,3 L17,4 L14,4 L14,3 L13,3 L13,4 L13,4 L10,4 L10,3 L9,3 L9,4 L7.99742191,4 C6.89427625,4 6,4.88976324 6,6.00359486 L6,26.9964051 C6,28.10296 6.89092539,29 7.99742191,29 L23.0025781,29 C24.1057238,29 25,28.1102368 25,26.9964051 L25,6.00359486 C25,4.89703997 24.1090746,4 23.0025781,4 L22,4 L22,3 L21,3 L21,4 L21,4 Z M21,5 L18,5 L18,6 L17,6 L17,5 L14,5 L14,6 L13,6 L13,5 L10,5 L10,6 L9,6 L9,5 L7.9999602,5 C7.44769743,5 7,5.43891776 7,6.00307055 L7,26.9969294 C7,27.55091 7.45470893,28 7.9999602,28 L23.0000398,28 C23.5523026,28 24,27.5610822 24,26.9969294 L24,6.00307055 C24,5.44908998 23.5452911,5 23.0000398,5 L22,5 L22,6 L21,6 L21,5 L21,5 Z M14,12 L14,13 L22,13 L22,12 L14,12 L14,12 Z M9,11 L9,14 L12,14 L12,11 L9,11 L9,11 Z M10,12 L10,13 L11,13 L11,12 L10,12 L10,12 Z M9,16 L9,19 L12,19 L12,16 L9,16 L9,16 Z M10,17 L10,18 L11,18 L11,17 L10,17 L10,17 Z M14,17 L14,18 L22,18 L22,17 L14,17 L14,17 Z M9,21 L9,24 L12,24 L12,21 L9,21 L9,21 Z M10,22 L10,23 L11,23 L11,22 L10,22 L10,22 Z M14,22 L14,23 L22,23 L22,22 L14,22 L14,22 Z" id="notebook-list" sketch:type="MSShapeGroup"></path>
        </g>
    </g>
</svg>

<svg width="32" height="32" xmlns="http://www.w3.org/2000/svg"><path d="M21 4h-3V3h-1v1h-3V3h-1v1h-3V3H9v1H7.997C6.894 4 6 4.89 6 6.004v20.992C6 28.103 6.89 29 7.997 29h15.006C24.106 29 25 28.11 25 26.996V6.004C25 4.897 24.11 4 23.003 4H22V3h-1v1zm0 1h-3v1h-1V5h-3v1h-1V5h-3v1H9V5H8c-.552 0-1 .439-1 1.003v20.994C7 27.55 7.455 28 8 28h15c.552 0 1-.439 1-1.003V6.003C24 5.45 23.545 5 23 5h-1v1h-1V5zm-7 7v1h8v-1h-8zm-5-1v3h3v-3H9zm1 1v1h1v-1h-1zm-1 4v3h3v-3H9zm1 1v1h1v-1h-1zm4 0v1h8v-1h-8zm-5 4v3h3v-3H9zm1 1v1h1v-1h-1zm4 0v1h8v-1h-8z" fill="#929292" fill-rule="evenodd"/></svg>
